assets/icons/qvision/card_membership.svg

<svg xmlns="http://www.w3.org/2000/svg" height="24" viewBox="0 0 24 24" width="24"><path d="M0 0h24v24H0z" fill="none"/><path d="M20 2H4c-1.11 0-2 .89-2 2v11c0 1.11.89 2 2 2h4v5l4-2 4 2v-5h4c1.11 0 2-.89 2-2V4c0-1.11-.89-2-2-2zm0 13H4v-2h16v2zm0-5H4V4h16v6z"/></svg>

<svg width="24" height="24" viewBox="0 0 24 24" fill="none" xmlns="http://www.w3.org/2000/svg">
<g clip-path="url(#clip0_147_3996)">
<path d="M20 2H4C2.89 2 2 2.89 2 4V15C2 16.11 2.89 17 4 17H8V22L12 20L16 22V17H20C21.11 17 22 16.11 22 15V4C22 2.89 21.11 2 20 2ZM20 15H4V13H20V15ZM20 10H4V4H20V10Z" fill="#323232"/>
</g>
<defs>
<clipPath id="clip0_147_3996">
<rect width="24" height="24" fill="white"/>
</clipPath>
</defs>
</svg>
